images/linkedin_hover.svg

<svg enable-background="new 0 0 438.536 438.536" fill="#77d8fe" height="438.536" viewBox="0 0 438.536 438.536" width="438.536" xmlns="http://www.w3.org/2000/svg"><path d="m414.41 24.123c-16.077-16.081-35.447-24.123-58.095-24.123h-274.087c-22.648 0-42.018 8.042-58.102 24.123-16.081 16.084-24.123 35.453-24.123 58.102v274.084c0 22.647 8.042 42.018 24.123 58.102 16.084 16.084 35.454 24.126 58.102 24.126h274.084c22.648 0 42.018-8.042 58.095-24.126 16.084-16.084 24.126-35.454 24.126-58.102v-274.084c-.001-22.649-8.043-42.021-24.123-58.102zm-280.792 343.034h-65.952v-198.141h65.952zm-5.992-234.825c-6.851 6.567-15.893 9.851-27.124 9.851h-.288c-10.848 0-19.648-3.284-26.407-9.851-6.76-6.567-10.138-14.703-10.138-24.41 0-9.897 3.476-18.083 10.421-24.556 6.95-6.471 15.942-9.708 26.98-9.708 11.039 0 19.89 3.237 26.553 9.708 6.661 6.473 10.088 14.659 10.277 24.556-.001 9.703-3.423 17.839-10.274 24.41zm243.247 234.825h-65.952v-105.92c0-29.879-11.036-44.823-33.116-44.823-8.374 0-15.42 2.331-21.128 6.995-5.715 4.661-9.996 10.324-12.847 16.991-1.335 3.422-1.999 8.75-1.999 15.981v110.775h-65.952c.571-119.529.571-185.579 0-198.142h65.952v27.974c13.867-21.681 33.558-32.544 59.101-32.544 22.84 0 41.21 7.52 55.104 22.554 13.895 15.037 20.841 37.214 20.841 66.519v113.64z"/></svg>

<?xml version="1.0" encoding="iso-8859-1"?>
<!-- Generator: Adobe Illustrator 16.0.0, SVG Export Plug-In . SVG Version: 6.00 Build 0)  -->
<!DOCTYPE svg PUBLIC "-//W3C//DTD SVG 1.1//EN" "http://www.w3.org/Graphics/SVG/1.1/DTD/svg11.dtd">
<svg version="1.1" id="Capa_1" xmlns="http://www.w3.org/2000/svg" xmlns:xlink="http://www.w3.org/1999/xlink" x="0px" y="0px"
	 width="438.536px" height="438.536px" viewBox="0 0 438.536 438.536" style="enable-background:new 0 0 438.536 438.536;"
	 xml:space="preserve">
<g>
	<path fill='#445e69' d="M414.41,24.123C398.333,8.042,378.963,0,356.315,0H82.228C59.58,0,40.21,8.042,24.126,24.123
		C8.045,40.207,0.003,59.576,0.003,82.225v274.084c0,22.647,8.042,42.018,24.123,58.102c16.084,16.084,35.454,24.126,58.102,24.126
		h274.084c22.648,0,42.018-8.042,58.095-24.126c16.084-16.084,24.126-35.454,24.126-58.102V82.225
		C438.532,59.576,430.49,40.204,414.41,24.123z M133.618,367.157H67.666V169.016h65.952V367.157z M127.626,132.332
		c-6.851,6.567-15.893,9.851-27.124,9.851h-0.288c-10.848,0-19.648-3.284-26.407-9.851c-6.76-6.567-10.138-14.703-10.138-24.41
		c0-9.897,3.476-18.083,10.421-24.556c6.95-6.471,15.942-9.708,26.98-9.708c11.039,0,19.89,3.237,26.553,9.708
		c6.661,6.473,10.088,14.659,10.277,24.556C137.899,117.625,134.477,125.761,127.626,132.332z M370.873,367.157h-65.952v-105.92
		c0-29.879-11.036-44.823-33.116-44.823c-8.374,0-15.42,2.331-21.128,6.995c-5.715,4.661-9.996,10.324-12.847,16.991
		c-1.335,3.422-1.999,8.75-1.999,15.981v110.775h-65.952c0.571-119.529,0.571-185.579,0-198.142h65.952v27.974
		c13.867-21.681,33.558-32.544,59.101-32.544c22.84,0,41.21,7.52,55.104,22.554c13.895,15.037,20.841,37.214,20.841,66.519v113.64
		H370.873z"/>
</g>
<g>
</g>
<g>
</g>
<g>
</g>
<g>
</g>
<g>
</g>
<g>
</g>
<g>
</g>
<g>
</g>
<g>
</g>
<g>
</g>
<g>
</g>
<g>
</g>
<g>
</g>
<g>
</g>
<g>
</g>
</svg>
